X:580
%%etbk:tnset id:313,pos:1,rep:3x,ant:
T: Star of the County Down (trad.)
M:4/4
R:song
L:1/8
K:Emin
B,D|:"Em"E2E2 E2DE|"G"G2G2 "D"A2GA|"Em"B2AG E2E2|"bm"D6B,D|
"Em"E2E2 E2DE|"G"G2G2 "D"A2GA|"Em"B2AG E2D2 | E6Bc|
|:"G"d2B2 B2AG|"D7"A2A2 A2GA|"Em"B2AG E2E2|"bm"D6B,D|
"Em"E2E2 E2DE|"G"G2G2 "D7"A2GA|"Em"B2AG E2D2|1E6B2:|2E8|


